svgs/regular/bus.svg

<svg xmlns="http://www.w3.org/2000/svg" viewBox="0 0 576 512"><!--! Font Awesome Pro 6.4.2 by @fontawesome - https://fontawesome.com License - https://fontawesome.com/license (Commercial License) Copyright 2023 Fonticons, Inc. --><path d="M363.7 96h97.5C445.4 78.9 399.2 48 288 48C185.8 48 133.8 78.3 115.5 96h96.8c5.5-9.6 15.9-16 27.7-16l96 0c11.8 0 22.2 6.4 27.7 16zM464 144H312v80H464V144zm-352 0v80H264V144H112zm0 128V376c0 13.3 10.7 24 24 24H364.2 440c13.3 0 24-10.7 24-24V272H112zM74.2 70C99.9 38.7 167.8 0 288 0C416.6 0 478 38.6 502.4 70.6c7.5 9.8 9.6 20.9 9.6 29.9V128c17.7 0 32 14.3 32 32v64c0 17.7-14.3 32-32 32V376c0 25-12.7 47-32 59.9V488c0 13.3-10.7 24-24 24s-24-10.7-24-24V448H364.2 144v40c0 13.3-10.7 24-24 24s-24-10.7-24-24V435.9C76.7 423 64 401 64 376V256c-17.7 0-32-14.3-32-32V160c0-17.7 14.3-32 32-32V100.4C64 91.6 66 80 74.2 70zM176 304a32 32 0 1 1 0 64 32 32 0 1 1 0-64zm224 0a32 32 0 1 1 0 64 32 32 0 1 1 0-64z"/></svg>

<svg xmlns="http://www.w3.org/2000/svg" viewBox="0 0 576 512"><!--! Font Awesome Pro 6.1.1 by @fontawesome - https://fontawesome.com License - https://fontawesome.com/license (Commercial License) Copyright 2022 Fonticons, Inc. --><path d="M144 336C144 318.3 158.3 304 176 304C193.7 304 208 318.3 208 336C208 353.7 193.7 368 176 368C158.3 368 144 353.7 144 336zM368 336C368 318.3 382.3 304 400 304C417.7 304 432 318.3 432 336C432 353.7 417.7 368 400 368C382.3 368 368 353.7 368 336zM74.2 70.03C99.86 38.75 167.8 0 288 0C416.6 0 478 38.63 502.4 70.55C509.9 80.32 512 91.48 512 100.4V128C529.7 128 544 142.3 544 160V224C544 241.7 529.7 256 512 256V376C512 400.1 499.3 422.1 480 435.9V488C480 501.3 469.3 512 456 512C442.7 512 432 501.3 432 488V448H144V488C144 501.3 133.3 512 120 512C106.7 512 96 501.3 96 488V435.9C76.7 422.1 64 400.1 64 376V256C46.33 256 32 241.7 32 224V160C32 142.3 46.33 128 64 128V100.4C64 91.58 66.05 79.97 74.2 70.03zM363.7 96H461.2C445.4 78.89 399.2 48 288 48C185.8 48 133.8 78.27 115.5 96H212.3C217.8 86.44 228.2 80 240 80H336C347.8 80 358.2 86.44 363.7 96zM464 144H312V224H464V144zM112 224H264V144H112V224zM112 272V376C112 389.3 122.7 400 136 400H440C453.3 400 464 389.3 464 376V272H112z"/></svg>
